!!!COM: Haydn, Franz Joseph
!!!OTL: String Quartet in G Major
!!!OPS: Opus 77
!!!ONM: No. 1
!!!OMD: Menuetto: Presto
!!!OMV: 3
!!!SCT: H III:81
!!!SCA: Thematisch-bibliographisches Werkevererzeichnis (A. van Hoboken)
!!!YOR: Trautwein Edition
!!!ENC: Frances Bennion
!!!CDT: 1732/3/31/-1809/5/31/
!!!CNT: Oesterreich
!!!YEC: Copyright (c) 1994, 2000 Center for Computer Assisted Research in the Humanities
!!!YEM: Rights to all derivative editions reserved.
!!!YEM: Refer to licensing agreement for further details.
!!!YEN: United States of America
**kern	**kern	**kern	**kern
*k[f#]	*k[f#]	*k[f#]	*k[f#]
*G:	*G:	*G:	*G:
*clefF4	*clefC3	*clefF	*clefF
*M3/4	*M3/4	*M3/4	*M3/4
8GG	8G	8G	8G
8AA	8A	8A	8A
8BB	8B	8B	8B
8C	8c	8c	8c
8D	8d	8d	8d
8BB	8B	8B	8B
=2	=2	=2	=2
4GG	4G	4G	4G
4r	4r	4r	2g
4E	4G	4c#	.
=3	=3	=3	=3
4D	4A	4d	4f#
4r	4r	4r	2dd
4c	4a	4f#	.
=4	=4	=4	=4
4B	4d	4g	4dd
4r	4r	4r	4gg
4G	4g	4dd	4bb
=5	=5	=5	=5
4D	4a	4cc	8ff#
.	.	.	8gg
4r	4r	4r	8aa
.	.	.	8bb
4D	4a	4f#	8ccc
.	.	.	8aa
=6	=6	=6	=6
4G	4d	4g	4bb
4r	4r	4r	2eee
4E	4b	4b	.
=7	=7	=7	=7
4A	4g	4e	8ccc#
.	.	.	8ddd
4r	4r	4r	8eee
.	.	.	8fff#
4C#	4A	4ee	8ggg
.	.	.	8eee
=8	=8	=8	=8
4D	4f#	4a	4fff#
4r	4r	4r	2aaa
4F#	4f#	4dd	.
=9	=9	=9	=9
4G	4e	4cc#	4a
4r	4r	4r	2aaa
4G	4e	4cc#	.
=10	=10	=10	=10
4F#	4a	4dd	4d
4r	4r	4r	2aaa
8D	4f#	8ff#	.
8F#	.	8dd	.
=11	=11	=11	=11
4A	4g	4cc#	4a
4r	4r	4r	2aaa
4AA	4cc#	8gg	.
.	.	8ee	.
=12	=12	=12	=12
4D	4dd	4ff#	4d
4r	2r	2r	2dd
8C	.	.	.
8AA	.	.	.
=13	=13	=13	=13
8GG	8G	8G	8G
8AA	8A	8A	8A
8BB	8B	8B	8B
8C	8c	8c	8c
8D	8d	8d	8d
8BB	8B	8B	8B
=14	=14	=14	=14
4GG	4G	4G	4G
4r	4r	4r	2g
4E	4G	8B	.
.	.	8c#	.
=15	=15	=15	=15
4D	4A	4d	4f#
4r	4r	4r	2dd
4c	8a	8f#	.
.	8f#	8a	.
=16	=16	=16	=16
4B	4g	4g	4dd
2r	2r	2r	4gg
.	.	.	4bb
=17	=17	=17	=17
4D	8a	8cc	8ff#
.	8g	8b	8gg
2r	8f#	8a	8aa
.	8e	8g	8bb
.	8d	8f#	8ccc
.	8a	8a	8aa
=18	=18	=18	=18
4G	4g	4d	4bb
4r	4r	4r	2eee
8E	[4g	8b	.
8G	.	8g	.
=19	=19	=19	=19
4A	8g]	8e	8ccc#
.	8f#	8d	8ddd
4r	8e	8c#	8eee
.	8d	8B	8fff#
8AA	8c#	8A	8ggg
8C#	8A	8g	8eee
=20	=20	=20	=20
4D	8d	8f#	4fff#
.	8c#	8e	.
2r	8d	8f#	2aaa
.	8f#	8a	.
.	8e	8g	.
.	8d	8f#	.
=21	=21	=21	=21
4G	8c#	8e	4a
.	8B	8d	.
2r	8c#	8e	2aaa
.	8d	8f#	.
.	8e	8g	.
.	8c#	8e	.
=22	=22	=22	=22
4F#	8d	8f#	4d
.	8e	8g	.
2r	8f#	8a	2aaa
.	8g	8b	.
.	8a	8cc#	.
.	8b	8dd	.
=23	=23	=23	=23
4AA	8cc#	8ee	4a
.	8dd	8ff#	.
2r	8ee	8gg	2aaa
.	8ff#	8aa	.
.	8gg	8bb	.
.	8ee	8ccc#	.
=24	=24	=24	=24
4D	4ff#	4ddd	4d
2r	2ff#	2ddd	2dd
=25	=25	=25	=25
4C	2.a	2.f#	8d
.	.	.	8e
4c	.	.	8f#
.	.	.	8g
4c	.	.	8a
.	.	.	8f#
=26	=26	=26	=26
4BB	2.g	2.g	4d
4B	.	.	2dd
4B	.	.	.
=27	=27	=27	=27
4AA	4f	2.cc	4f
4A	4a	.	2ff
4A	4cc	.	.
=28	=28	=28	=28
4GG#	2.ee	2.b	4ee
2G#	.	.	2ddd
=29	=29	=29	=29
2.r	2.c	8a	[2.a
.	.	8b	.
.	.	8cc	.
.	.	8dd	.
.	.	8ee	.
.	.	8cc	.
=30	=30	=30	=30
2.r	2.d	4b	2.a_
.	.	2ff	.
=31	=31	=31	=31
2.r	2.e	8b	4a]
.	.	8cc	.
.	.	8dd	4a
.	.	8ee	.
.	.	8ff	4g#
.	.	8dd	.
=32	=32	=32	=32
2.r	4A	8cc	8a
.	.	8b	8g#
.	2r	8cc	8a
.	.	8dd	8b
.	.	8ee	8cc
.	.	8dd	8b
=33	=33	=33	=33
2.E	2.G	[2.cc	8cc
.	.	.	8dd
.	.	.	8ee
.	.	.	8ff
.	.	.	8gg
.	.	.	8ee
=34	=34	=34	=34
2.F	2A	2.cc_	4dd
.	.	.	2aa
.	4d	.	.
=35	=35	=35	=35
2.G	2d	4cc]	8dd
.	.	.	8ee
.	.	4cc	8ff
.	.	.	8gg
.	8d	4b	8aa
.	8g	.	8ff
=36	=36	=36	=36
8c	4g	4cc	4ee
8d	.	.	.
8c	8e	2ee	2ccc
8B	8d	.	.
8A	8c	.	.
8G	8B	.	.
=37	=37	=37	=37
8F#	4A	4dd	4dd
8D	.	.	.
8E	4r	4aa	4ccc
8F#	.	.	.
8G	4d	4gg	4bb
8GG	.	.	.
=38	=38	=38	=38
8F#	4a	4dd	4dd
8D	.	.	.
8E	4d	4aa	4ccc
8F#	.	.	.
8G	4d	4gg	4bb
8GG	.	.	.
=39	=39	=39	=39
8C	4e	4e	4aa
8BB	.	.	.
8C	4c	4ee	4.aa
8CC	.	.	.
8C#	4c#	4ee	.
8AA	.	.	8gg
=40	=40	=40	=40
[2.D	2d	4a	4ff#
.	.	8b	4.dd
.	.	8cc	.
.	8d	8b	.
.	8c	8a	8dd#
=41	=41	=41	=41
2.D_	4B	4g#	8ee
.	.	.	8dd
.	4c	4a	8cc
.	.	.	8b
.	4e	4cc	8a
.	.	.	8cc
=42	=42	=42	=42
2.D]	4A	4f#	8dd
.	.	.	8cc
.	4B	4g	8b
.	.	.	8a
.	4d	8b	8g
.	.	8f	8g#
=43	=43	=43	=43
[2.DD	8c	8e	8a
.	8B	8d	8b
.	8A	8c	8cc
.	8G#	8B	8dd
.	8A	8c	8cc
.	8c	8e-	8f#
=44	=44	=44	=44
2.DD_	8B	8d	8g
.	8A	8c	8a
.	8G	8B	8b
.	8F#	8A	8cc
.	8G	8B	8b
.	8B	8G	8dd
=45	=45	=45	=45
2.DD_	2.E	[2.c#	8gg
.	.	.	8ff#
.	.	.	8ee
.	.	.	8dd
.	.	.	8cc#
.	.	.	8b
=46	=46	=46	=46
2.DD_	2.G 2.E	2.c#]	8a
.	.	.	8g
.	.	.	8f#
.	.	.	8e
.	.	.	8d
.	.	.	8c#
=47	=47	=47	=47
4DD]	4F#	4d	8d
.	.	.	8e
2r	2r	2r	8f#
.	.	.	8g
.	.	.	8a
.	.	.	8f#
=48	=48	=48	=48
4DD	4E	4c#	8g
.	.	.	8f#
2r	2r	2r	8e
.	.	.	8d
.	.	.	8c#
.	.	.	8e
=49	=49	=49	=49
4DD	4F#	4d	8d
.	.	.	8e
2r	2r	2r	8f#
.	.	.	8g
.	.	.	8a
.	.	.	8f#
=50	=50	=50	=50
4DD	4E	4c#	8g
.	.	.	8f#
2r	2r	2r	8e
.	.	.	8d
.	.	.	8c#
.	.	.	8e
=51	=51	=51	=51
4DD	4F#	4d	8d
.	.	.	8e
2r	2r	2r	8f#
.	.	.	8g
.	.	.	8a
.	.	.	8f#
=52	=52	=52	=52
4DD	4F#	4d	8d
.	.	.	8e
2r	2r	2r	8f#
.	.	.	8g
.	.	.	8a
.	.	.	8f#
=53	=53	=53	=53
4DD	4F#	4d	8d
.	.	.	8a
2r	2r	2r	8cc
.	.	.	8b
.	.	.	8a
.	.	.	8g
=54	=54	=54	=54
2.r	2.r	2.r	8f#
.	.	.	8e
.	.	.	8d
.	.	.	8c
.	.	.	8B
.	.	.	8A
=55	=55	=55	=55
8GG	8G	8G	8G
8AA	8A	8A	8A
8BB	8B	8B	8B
8C	8c	8c	8c
8D	8d	8d	8d
8BB	8B	8B	8B
=56	=56	=56	=56
4GG	4G	4G	4G
4r	4r	4r	2g
4E	4G	8B	.
.	.	8c#	.
=57	=57	=57	=57
4D	4A	4d	4f#
4r	4r	4r	2dd
4c	4a	4f#	.
=58	=58	=58	=58
4B	4d	4g	4dd
4r	4r	4r	4gg
4G	4g	4dd	4bb
=59	=59	=59	=59
4D	4a	4cc	8ff#
.	.	.	8gg
4r	4r	4r	8aa
.	.	.	8bb
4D	4a	4f#	8ccc
.	.	.	8aa
=60	=60	=60	=60
4G	4d	4g	4bb
4r	4r	4r	2ddd
4GG	4d	4b	.
=61	=61	=61	=61
4D	4f#	4a	8ccc
.	.	.	8bb
4r	4r	4r	8aa
.	.	.	8gg
4D	8a	4cc	8ff#
.	8f#	.	8aa
=62	=62	=62	=62
4E	4g	4b	4gg
4r	4r	4r	2bb
4E	4g	4g	.
=63	=63	=63	=63
4BB	4G	4dd	8aa
.	.	.	8gg
4r	4r	4r	8ff#
.	.	.	8gg
4BB	4d	4g	8ff
.	.	.	8dd
=64	=64	=64	=64
4C	4c	4G	8ff
.	.	.	8ee
2r	2r	2r	8dd#
.	.	.	8ee
.	.	.	8gg
.	.	.	8ee
=65	=65	=65	=65
4C	4A	4e	8dd
.	.	.	8cc
2r	2r	2r	8ee
.	.	.	8b
.	.	.	8cc
.	.	.	8a
=66	=66	=66	=66
4D	4D	4B	4g
2r	4r	4r	2dd
.	4g	4b	.
=67	=67	=67	=67
4D	4a	4cc	4f#
2r	4r	4r	[2dd
.	4c	4f#	.
=68	=68	=68	=68
2.BB	2.D	8G	4dd]
.	.	8A	.
.	.	8B	4g
.	.	8c	.
.	.	8d	[4gg
.	.	8B	.
=69	=69	=69	=69
2.C	2.E	8A	4gg]
.	.	8B	.
.	.	8c	4g
.	.	8d	.
.	.	8e	[4gg
.	.	8c	.
=70	=70	=70	=70
2.D	2.F	8B	4gg]
.	.	8c	.
.	.	8d	4g
.	.	8e	.
.	.	8f	[4gg
.	.	8B	.
=71	=71	=71	=71
4E	4E	8c	4gg]
.	.	8d	.
4C	2r	8e	4ee
.	.	8f#	.
8BB	.	8g	8dd
8AA	.	8a	8cc
=72	=72	=72	=72
4GG	2.r	8g	8b
.	.	8a	8cc
2r	.	8b	8dd
.	.	8cc	8ee
.	.	8dd	8ff#
.	.	8ee	8gg
=73	=73	=73	=73
4DD	8cc	8ff#	8aa
.	8b	8gg	8bb
2r	8a	8aa	8ccc
.	8g	8bb	8ddd
.	8f#	8ccc	8eee
.	8d	8aa	8fff#
=74	=74	=74	=74
2.r	8g	8bb	4ggg
.	8f#	8aa	.
.	8g	8bb	2ggg
.	8b	8ddd	.
.	8a	8ccc	.
.	8g	8bb	.
=75	=75	=75	=75
8d	8f#	4aa	4dddd
8e	8g	.	.
8f#	8a	2r	2dddd
8d	8f#	.	.
8e	8g	.	.
8f#	8a	.	.
=76	=76	=76	=76
4g	8g	8bb	4dddd
.	8f#	8aa	.
2r	8g	8bb	2dddd
.	8b	8ddd	.
.	8a	8ccc	.
.	8g	8bb	.
=77	=77	=77	=77
8f#	4d	8aa	4dddd
8g	.	8bb	.
8a	2d	8ccc	2dddd
8g	.	8bb	.
8a	.	8ccc	.
8f#	.	8aa	.
=78	=78	=78	=78
4g	4d	4bb	4G
4g	4d	4bb	4G
4r	4r	4r	4r
=79	=79	=79	=79
4D	4d	4f#	4a
4D	4d	4f#	4a
4r	4r	4r	4r
=80	=80	=80	=80
4GG	4d	4g	4b
4GG	4d	4g	4b
4r	4r	4r	4r
=81	=81	=81	=81
2.DD	2.A	2.c	2.f#
=82	=82	=82	=82
*E-:	*E-:	*E-:	*E-:
4GG	4B	4B	4g
2r	2r	2r	2r
=83	=83	=83	=83
2.DD	2.A	2.c	2.f#
=84	=84	=84	=84
4EE-	[2.G	[2.B-	[2.g
4E-	.	.	.
4E-	.	.	.
=85	=85	=85	=85
4E-	4G]	4B-]	4g]
4E-	4G	4B-	4f
4E-	4G	4B-	4e-
=86	=86	=86	=86
4E-	4A-	4B-	4d
4E-	4A-	4B-	4e-
4E-	4A-	4B-	4f
=87	=87	=87	=87
4E-	4A-	4B-	4B-
4E-	4A-	4B-	4c
4E-	4A-	4B-	4d
=88	=88	=88	=88
4E-	4G	4B-	4e-
4E-	4G	4B-	4r
4E-	4G	4B-	4g
=89	=89	=89	=89
4E-	4G	4B-	4b-
4E-	4G	4B-	4r
4E-	4G	4B-	4ee-
=90	=90	=90	=90
4E-	4G	4B-	4gg
4E-	4G	4B-	4r
4E-	4G	4B-	4bb-
=91	=91	=91	=91
4E-	4G	4B-	4gg
4E-	4G	4B-	4r
4E-	4G	4B-	4bb-
=92	=92	=92	=92
4E-	4G	4B-	4gg
4E-	4G	4B-	4r
4E-	4G	4B-	4bb-
=93	=93	=93	=93
4E-	4G	4B-	4gg
4E-	4G	4B-	4r
4E-	4G	4B-	4B-
=94	=94	=94	=94
8EE-	8G	8B-	[2.g
8E-	8G	8B-	.
8E-	8G	8B-	.
8E-	8G	8B-	.
8E-	8G	8B-	.
8E-	8G	8B-	.
=95	=95	=95	=95
4E-	4G	4B-	4g]
4E-	4G	4B-	4f
4E-	4G	4B-	4e-
=96	=96	=96	=96
4E-	4A-	4B-	4d
4E-	4A-	4B-	4e-
4E-	4A-	4B-	4f
=97	=97	=97	=97
4E-	4A-	4B-	4B-
4E-	4A-	4B-	4c
4E-	4A-	4B-	4d
=98	=98	=98	=98
4E-	4G	4B-	4e-
4E-	4G	4B-	4r
4E-	4G	4B-	4g
=99	=99	=99	=99
4E-	4G	4B-	4b-
4E-	4G	4B-	4r
4E-	4G	4B-	4ee-
=100	=100	=100	=100
4E-	4G	4B-	4gg
4E-	4G	4B-	4r
4E-	4G	4B-	4bb-
=101	=101	=101	=101
4E-	4G	4B-	4gg
4E-	4G	4B-	4r
4E-	4G	4B-	4bb-
=102	=102	=102	=102
4E-	4G	4B-	4gg
4E-	4G	4B-	4r
4E-	4G	4B-	4bb-
=103	=103	=103	=103
4E-	4G	4B-	4gg
4E-	4G	4B-	4r
4r	4r	4r	4ccc
=104	=104	=104	=104
8CC	8G 8E-	8e- 8G	2gg
8C	8E- 8G	8e- 8G	.
8C	8G 8E-	8e- 8G	.
8C	8G 8E-	8e- 8G	.
8C	8E- 8G	8e- 8G	4ee-
8C	8G 8E-	8G 8e-	.
=105	=105	=105	=105
4C	4G 4E-	4e- 4G	4cc
4C	4E- 4G	4e-	4g
4C	4G 4E-	4e-	4e-
=106	=106	=106	=106
4C	4A- 4F	4B	4d
4C	4A- 4F	4B	4e-
4C	4F 4A-	4B	4f
=107	=107	=107	=107
4C	4A- 4F	4B	4B
4C	4A- 4F	4B	4c
4C	4A- 4F	4B	4d
=108	=108	=108	=108
4C	4E- 4G	4c	2c
4C	4E- 4G	4c	.
4C	4E- 4G	4c	4e-
=109	=109	=109	=109
4C	4E- 4G	4c	2g
4C	4G 4E-	4c	.
4C	4G 4E-	4c	4cc
=110	=110	=110	=110
4C	4F 4A-	4B	4dd
4C	4A- 4F	4B	4ee-
4C	4A- 4F	4B	4ff
=111	=111	=111	=111
4C	4A- 4F	4B	4b
4C	4A- 4F	4B	4cc
4C	4A- 4F	4B	4dd
=112	=112	=112	=112
4C	4G 4E-	4c	2cc
4C	4G 4E-	4c	.
4C	4G 4E-	4c	4ee-
=113	=113	=113	=113
4C	4G 4E-	4c	2gg
4C	4e-	4c	.
4C	4c	4c	4gg
=114	=114	=114	=114
8D	8A	8c	4ff#
8D	8A	8c	.
8D	8A	8c	4gg
8D	8A	8c	.
8D	8A	8c	4aa
8D	8A	8c	.
=115	=115	=115	=115
4D	4A	4c	4dd
4D	4A	4c	4ee
4D	4A	4c	4ff#
=116	=116	=116	=116
4D	4G	4B-	2gg
4D	4G	4B-	.
4D	4G	4B-	4aa
=117	=117	=117	=117
4D	4G	4B-	2bb-
4D	4G	4B-	.
4D	4G	4B-	4bb-
=118	=118	=118	=118
4D	4F#	4c	4aa
4D	4F#	4c	4bb-
4D	4F#	4c	4ccc
=119	=119	=119	=119
4D	4F#	4c	4dd
4D	4G	4c	4ee
4D	4A	4c	4ff#
=120	=120	=120	=120
4D	4G	4B-	[2.gg
4D	4G	4B-	.
4D	4G	4B-	.
=121	=121	=121	=121
4D-	4G	4B-	2gg]
4D-	4G	4B-	.
4D-	4G	4B-	4ff
=122	=122	=122	=122
4C	4G	4B-	4ee
4C	4G	4B-	4ff
4C	4G	4B-	4gg
=123	=123	=123	=123
4C	4G	4B-	4cc
4C	4G	4B-	4dd
4C	4G	4B-	4ee
=124	=124	=124	=124
4C	4F	4A-	[2.ff
4C	4F	4A-	.
4C	4F	4A-	.
=125	=125	=125	=125
4C-	4F	4A-	2ff]
4C-	4F	4A-	.
4C-	4F	4A-	4ee-
=126	=126	=126	=126
4BB-	4F	4A-	4dd
4BB-	4F	4A-	4ee-
4BB-	4F	4A-	4ff
=127	=127	=127	=127
4BB-	4F	4A-	4B-
4BB-	4F	4A-	8c
.	.	.	8d
4BB-	4F	4A-	8e-
.	.	.	8f
=128	=128	=128	=128
8EE-	8G	8G	[2.g
8E-	8G	8B-	.
8E-	8G	8B-	.
8E-	8G	8B-	.
8E-	8G	8B-	.
8E-	8G	8B-	.
=129	=129	=129	=129
4E-	4G	4B-	4g]
4E-	4G	4B-	4f
4E-	4G	4B-	4e-
=130	=130	=130	=130
4E-	4A-	4B-	4d
4E-	4A-	4B-	4e-
4E-	4A-	4B-	4f
=131	=131	=131	=131
4E-	4A-	4B-	4B-
4E-	4A-	4B-	4c
4E-	4A-	4B-	4d
=132	=132	=132	=132
4E-	4G	4B-	4e-
4E-	4G	4B-	4r
4E-	4G	4B-	4g
=133	=133	=133	=133
4E-	4G	4B-	4b-
4E-	4G	4B-	4r
4E-	4G	4B-	4ee-
=134	=134	=134	=134
4E-	4G	4B-	4gg
4E-	4G	4B-	4r
4E-	4G	4B-	4bb-
=135	=135	=135	=135
4E-	4G	4B-	4gg
4E-	4G	4B-	4r
4E-	4G	4B-	4bb-
=136	=136	=136	=136
4E-	4G	4B-	4gg
4E-	4G	4B-	4r
4E-	4G	4B-	4bb-
=137	=137	=137	=137
4E-	4G	4B-	4gg
4E-	4G	4B-	4r
4r	4r	4r	4ccc
=138	=138	=138	=138
8CC 8C	8G 8E-	8e- 8G	2gg
8CC 8C	8G 8E-	8e- 8G	.
8CC 8C	8G 8E-	8G 8e-	.
8C 8CC	8G 8E-	8G 8e-	.
8CC 8C	8G 8E-	8e- 8G	4ee-
8C 8CC	8G 8E-	8G 8e-	.
=139	=139	=139	=139
4CC 4C	4G 4E-	4e- 4G	4cc
4C	4G 4E-	4e-	4g
4C	4G 4E-	4e-	4e-
=140	=140	=140	=140
4C	4A- 4F	4B	4d
4C	4F 4A-	4B	4e-
4C	4F 4A-	4B	4f
=141	=141	=141	=141
4C	4F 4A-	4B	4B
4C	4F 4A-	4B	4c
4C	4F 4A-	4B	4d
=142	=142	=142	=142
4C	4G 4E-	4c	2c
4C	4G 4E-	4c	.
4C	4G 4E-	4c	4e-
=143	=143	=143	=143
4C	4G 4E-	4c	2g
4C	4G 4E-	4c	.
4C	4G 4E-	4c	4cc
=144	=144	=144	=144
4C	4A- 4F	4B	4dd
4C	4F 4A-	4B	4ee-
4C	4F 4A-	4B	4ff
=145	=145	=145	=145
4C	4F 4A-	4B	4b
4C	4F 4A-	4B	4cc
4C	4F 4A-	4B	4dd
=146	=146	=146	=146
4C	4G 4E-	4c	2cc
4C	4G 4E-	4c	.
4C	4G 4E-	4c	4ee-
=147	=147	=147	=147
4C	4G 4E-	4c	2gg
4C	4e-	4c	.
4C	4c	4c	4gg
=148	=148	=148	=148
8D	8A	8c	4ff#
8D	8A	8c	.
8D	8A	8c	4gg
8D	8A	8c	.
8D	8A	8c	4aa
8D	8A	8c	.
=149	=149	=149	=149
4D	4A	4c	4dd
4D	4A	4c	4ee
4D	4A	4c	4ff#
=150	=150	=150	=150
4D	4G	4B-	2gg
4D	4G	4B-	.
4D	4G	4B-	4aa
=151	=151	=151	=151
4D	4G	4B-	2bb-
4D	4G	4B-	.
4D	4G	4B-	4bb-
=152	=152	=152	=152
4D	4F#	4c	4aa
4D	4F#	4c	4bb-
4D	4F#	4c	4ccc
=153	=153	=153	=153
4D	4F#	4c	4dd
4D	4G	4c	4ee
4D	4A	4c	4ff#
=154	=154	=154	=154
4D	4G	4B-	[2.gg
4D	4G	4B-	.
4D	4G	4B-	.
=155	=155	=155	=155
8D-	4G	4B-	2gg]
8D-	.	.	.
8D-	4G	4B-	.
8D-	.	.	.
8D-	4G	4B-	4ff
8D-	.	.	.
=156	=156	=156	=156
4C	4G	4B-	4ee
4C	4G	4B-	4ff
4C	4G	4B-	4gg
=157	=157	=157	=157
4C	4G	4B-	4cc
4C	4G	4B-	4dd
4C	4G	4B-	4ee
=158	=158	=158	=158
4C	4F	4A-	[2.ff
4C	4F	4A-	.
4C	4F	4A-	.
=159	=159	=159	=159
8C-	4F	4A-	2ff]
8C-	.	.	.
8C-	4F	4A-	.
8C-	.	.	.
8C-	4F	4A-	4ee-
8C-	.	.	.
=160	=160	=160	=160
4BB-	4F	4A-	4dd
4BB-	4F	4A-	4ee-
4BB-	4F	4A-	4ff
=161	=161	=161	=161
4BB-	4F	4A-	4B-
4BB-	4F	4A-	8c
.	.	.	8d
4BB-	4F	4A-	8e-
.	.	.	8f
=162	=162	=162	=162
8EE-	8G	8G	[2.g
8EE-	8G	8B-	.
8EE-	8G	8B-	.
8EE-	8G	8B-	.
8EE-	8G	8B-	.
8EE-	8G	8B-	.
=163	=163	=163	=163
4EE-	4G	4B-	4g]
4EE-	4G	4B-	4f
4EE-	4G	4B-	4e-
=164	=164	=164	=164
4EE-	4A-	4B-	4d
4EE-	4A-	4B-	4e-
4EE-	4A-	4B-	4f
=165	=165	=165	=165
4EE-	4A-	4B-	4B-
4EE-	4A-	4B-	4c
4EE-	4A-	4B-	4d
=166	=166	=166	=166
4E-	4G	4B-	4e-
4E-	4G	4B-	4r
4E-	4G	4B-	4g
=167	=167	=167	=167
4E-	4G	4B-	4b-
4E-	4G	4B-	4r
4E-	4G	4B-	4ee-
=168	=168	=168	=168
4E-	4G	4B-	4gg
4E-	4G	4B-	4r
4E-	4G	4B-	4bb-
=169	=169	=169	=169
4E-	4G	4B-	4gg
4E-	4G	4B-	4r
4E-	4G	4B-	4bb-
=170	=170	=170	=170
4E-	4G	4B-	4gg
4E-	4G	4B-	4r
4E-	4G	4B-	4bb-
=171	=171	=171	=171
4E-	4G	4B-	4gg
4E-	4G	4B-	4r
4E-	4G	4G	4ccc
=172	=172	=172	=172
4E-	4G	4c	4gg
4E-	4G	4c	4r
4E-	4G	4c	4ccc
=173	=173	=173	=173
4E-	4G	4c	4gg
4E-	4G	4c	4r
4E-	4G	4c	4gg
=174	=174	=174	=174
8E-	8G	8B-	2ccc#
8E-	8G	8B-	.
8E-	8G	8B-	.
8E-	8G	8B-	.
4E-	4G	4B-	4gg
=175	=175	=175	=175
8E-	8G	8B-	2ccc#
8E-	8G	8B-	.
8E-	8G	8B-	.
8E-	8G	8B-	.
4E-	4G	4c#	4gg
=176	=176	=176	=176
8D	8F#	8d	2ddd
8D	8F#	8d	.
8D	8F#	8d	.
8D	8F#	8d	.
4D	4G	4B-	4dd
=177	=177	=177	=177
8D	8F#	8A	2ddd
8D	8F#	8A	.
8D	8F#	8A	.
8D	8F#	8A	.
4D	4G	4B-	4dd
=178	=178	=178	=178
8DD	8F#	8A	2ddd
8DD	8F#	8A	.
8DD	8F#	8A	.
8DD	8F#	8A	.
4DD	4G	4B-	4d
=179	=179	=179	=179
8DD	8F#	8A	2dd
8DD	8F#	8A	.
8DD	8F#	8A	.
8DD	8F#	8A	.
4DD	4G	4B-	4d
=180	=180	=180	=180
4DD	4F#	4A	4dd
2r	2r	2r	2r
=181	=181	=181	=181
4DD	4F#	4A	4dd
2r	2r	2r	2r
=182	=182	=182	=182
4DD	4F#	4A	4dd
2r	2r	2r	2r
=183	=183	=183	=183
2.r	2.r	2.r	2.r
==	==	==	==
*-	*-	*-	*-
!!!RWG1: This file contains only pitch and duration data.
!!!RWG2: Transposing instruments are not transposed.
!!!RWG3: Spines may have incompatible meters.
!!!RWG4: Durations of rests and tied notes may be interpreted.
!!!RWG: Key is interpreted using the Humdrum key tool.
!!!GTL: 2 Quartetti ("Lobkowitz")
!!!AFT: stage1
!!!END: 1997/04/15
!!!KEY: 4109982545
!!!EMD: Converted from MuseData to Humdrum Dec 16, 2000, by Andreas Kornstaedt using muse2kern.
!!!EMD: Manual editing by Craig Sapp, Nov 2001
